flaticon/pins-and-locations/compass.svg

<svg xmlns="http://www.w3.org/2000/svg" width="32" height="32" viewBox="0 0 24 24">
    <path d="M 23.679688 11.601562 L 14.878906 9.601562 L 14.839844 9.601562 C 14.601562 9.558594 14.441406 9.398438 14.398438 9.121094 L 12.398438 0.320312 C 12.359375 0.121094 12.199219 0 12 0 C 11.800781 0 11.640625 0.121094 11.601562 0.320312 L 9.601562 9.160156 C 9.558594 9.398438 9.398438 9.558594 9.121094 9.601562 L 0.320312 11.601562 C 0.121094 11.640625 0 11.800781 0 12 C 0 12.199219 0.121094 12.359375 0.320312 12.398438 L 9.160156 14.398438 C 9.359375 14.441406 9.558594 14.601562 9.601562 14.878906 L 11.601562 23.679688 C 11.640625 23.878906 11.800781 24 12 24 C 12.199219 24 12.359375 23.878906 12.398438 23.679688 L 14.398438 14.839844 C 14.441406 14.601562 14.601562 14.441406 14.878906 14.398438 L 23.679688 12.398438 C 23.878906 12.359375 24 12.199219 24 12 C 24 11.800781 23.878906 11.640625 23.679688 11.601562 Z M 14.71875 13.679688 C 14.121094 13.761719 13.679688 14.199219 13.601562 14.761719 L 11.960938 21.839844 L 10.359375 14.761719 C 10.28125 14.160156 9.839844 13.71875 9.28125 13.640625 L 2.199219 12 L 9.238281 10.359375 C 9.839844 10.28125 10.28125 9.839844 10.359375 9.28125 L 12 2.199219 L 13.601562 9.320312 C 13.679688 9.878906 14.160156 10.359375 14.71875 10.441406 L 21.800781 12.078125 Z M 14.71875 13.679688"/>
</svg>

<svg xmlns="http://www.w3.org/2000/svg" width="32" height="32" viewBox="0 0 24 24">
    <path d="M23.68 11.602l-8.801-2h-.04c-.237-.043-.398-.204-.44-.48l-2-8.802C12.358.121 12.198 0 12 0c-.2 0-.36.121-.398.32l-2 8.84c-.043.238-.204.399-.48.442l-8.802 2C.121 11.64 0 11.8 0 12c0 .2.121.36.32.398l8.84 2c.2.043.399.204.442.48l2 8.802c.039.199.199.32.398.32.2 0 .36-.121.398-.32l2-8.84c.043-.238.204-.399.48-.442l8.802-2c.199-.039.32-.199.32-.398 0-.2-.121-.36-.32-.398zm-8.961 2.078c-.598.082-1.04.52-1.117 1.082L11.96 21.84l-1.602-7.078c-.078-.602-.52-1.043-1.078-1.121L2.2 12l7.04-1.64c.6-.079 1.042-.52 1.12-1.079L12 2.2l1.602 7.121a1.36 1.36 0 0 0 1.117 1.121l7.082 1.637zm0 0"/>
</svg>
